; 3D Printer Simulator Sample G-code
; Simple Calibration Cube (20mm x 20mm x 20mm)
; Generated for educational purposes

; Setup
G28 ; Home all axes
M104 S200 ; Set hotend temperature to 200C
M140 S60 ; Set bed temperature to 60C
G1 Z0.2 F5000 ; Move to first layer height

; Layer 1 (Z=0.2)
G1 X10 Y10 Z0.2 F3000
G1 X30 Y10 E5 F1500
G1 X30 Y30 E10
G1 X10 Y30 E15
G1 X10 Y10 E20
G1 X11 Y11 E21
G1 X29 Y11 E26
G1 X29 Y29 E31
G1 X11 Y29 E36
G1 X11 Y11 E41

; Layer 2 (Z=0.4)
G1 Z0.4 F5000
G1 X10 Y10 E42
G1 X30 Y10 E47 F1500
G1 X30 Y30 E52
G1 X10 Y30 E57
G1 X10 Y10 E62
G1 X11 Y11 E63
G1 X29 Y11 E68
G1 X29 Y29 E73
G1 X11 Y29 E78
G1 X11 Y11 E83

; Layer 3 (Z=0.6)
G1 Z0.6 F5000
G1 X10 Y10 E84
G1 X30 Y10 E89 F1500
G1 X30 Y30 E94
G1 X10 Y30 E99
G1 X10 Y10 E104
G1 X11 Y11 E105
G1 X29 Y11 E110
G1 X29 Y29 E115
G1 X11 Y29 E120
G1 X11 Y11 E125

; Layer 4 (Z=0.8)
G1 Z0.8 F5000
G1 X10 Y10 E126
G1 X30 Y10 E131 F1500
G1 X30 Y30 E136
G1 X10 Y30 E141
G1 X10 Y10 E146
G1 X11 Y11 E147
G1 X29 Y11 E152
G1 X29 Y29 E157
G1 X11 Y29 E162
G1 X11 Y11 E167

; Layer 5 (Z=1.0)
G1 Z1.0 F5000
G1 X10 Y10 E168
G1 X30 Y10 E173 F1500
G1 X30 Y30 E178
G1 X10 Y30 E183
G1 X10 Y10 E188
G1 X11 Y11 E189
G1 X29 Y11 E194
G1 X29 Y29 E199
G1 X11 Y29 E204
G1 X11 Y11 E209

; Layer 6 (Z=1.2)
G1 Z1.2 F5000
G1 X10 Y10 E210
G1 X30 Y10 E215 F1500
G1 X30 Y30 E220
G1 X10 Y30 E225
G1 X10 Y10 E230
G1 X11 Y11 E231
G1 X29 Y11 E236
G1 X29 Y29 E241
G1 X11 Y29 E246
G1 X11 Y11 E251

; Layer 7 (Z=1.4)
G1 Z1.4 F5000
G1 X10 Y10 E252
G1 X30 Y10 E257 F1500
G1 X30 Y30 E262
G1 X10 Y30 E267
G1 X10 Y10 E272
G1 X11 Y11 E273
G1 X29 Y11 E278
G1 X29 Y29 E283
G1 X11 Y29 E288
G1 X11 Y11 E293

; Layer 8 (Z=1.6)
G1 Z1.6 F5000
G1 X10 Y10 E294
G1 X30 Y10 E299 F1500
G1 X30 Y30 E304
G1 X10 Y30 E309
G1 X10 Y10 E314
G1 X11 Y11 E315
G1 X29 Y11 E320
G1 X29 Y29 E325
G1 X11 Y29 E330
G1 X11 Y11 E335

; Layer 9 (Z=1.8)
G1 Z1.8 F5000
G1 X10 Y10 E336
G1 X30 Y10 E341 F1500
G1 X30 Y30 E346
G1 X10 Y30 E351
G1 X10 Y10 E356
G1 X11 Y11 E357
G1 X29 Y11 E362
G1 X29 Y29 E367
G1 X11 Y29 E372
G1 X11 Y11 E377

; Layer 10 (Z=2.0) - Top layer with infill
G1 Z2.0 F5000
G1 X10 Y10 E378
G1 X30 Y10 E383 F1500
G1 X30 Y30 E388
G1 X10 Y30 E393
G1 X10 Y10 E398
G1 X15 Y15 E400
G1 X25 Y15 E405
G1 X25 Y25 E410
G1 X15 Y25 E415
G1 X15 Y15 E420

; Finish
G1 Z10 F5000
M104 S0 ; Turn off hotend
M140 S0 ; Turn off bed
G28 X Y ; Home X and Y
M84 ; Disable steppers
